Papirus/24x24/panel/Notesnook.svg

<svg width="24" height="24" version="1.1" xmlns="http://www.w3.org/2000/svg">
 <defs>
  <style id="current-color-scheme" type="text/css">.ColorScheme-Text { color:#dfdfdf; } .ColorScheme-Highlight { color:#4285f4; } .ColorScheme-NeutralText { color:#ff9800; } .ColorScheme-PositiveText { color:#4caf50; } .ColorScheme-NegativeText { color:#f44336; }</style>
 </defs>
 <path class="ColorScheme-Text" d="m7 3c-2.2090506 0-4 1.7909494-4 4v10c0 2.20905 1.7909494 4 4 4h10c2.201733 0 4-1.79095 4-4v-10c0-2.2090506-1.79095-4-4-4zm0 2h5c1.326082 0 2.597498 0.5203713 3.535156 1.4472656 0.937683 0.9268949 1.464844 2.1852698 1.464844 3.4960938v4.3046876l-2-0.587891v-3.7480466c-5.37e-4 -1.7208057-1.477929-2.8574614-2.873047-2.9121094-0.363021-0.0142185-2.8997208-0.0565272-3.1210936 2.6894531-0.0061 0.083568-0.0058594 0.1686763-0.0058594 0.2539063v1.0683596l-2-0.72461zm0 6.724609 2 0.722657v1.685546c0 2.170828 1.84338 2.867188 3 2.867188 1.382878 0 2.372679-0.541991 2.951172-1.945312l1.93164 0.669921c-0.383468 1.101254-1.301647 2.034309-2.318359 2.63086-0.779241 0.457215-1.667167 0.644531-2.564453 0.644531-1.123517 0-2.6673912-0.356917-3.8144531-1.6875-0.7655549-0.887977-1.1853889-2.01568-1.1855469-3.179688z" style="fill:currentColor"/>
</svg>

<svg width="24" height="24" version="1.1" xmlns="http://www.w3.org/2000/svg">
 <defs>
  <style id="current-color-scheme" type="text/css">.ColorScheme-Text { color:#dfdfdf; } .ColorScheme-Highlight { color:#4285f4; } .ColorScheme-NeutralText { color:#ff9800; } .ColorScheme-PositiveText { color:#4caf50; } .ColorScheme-NegativeText { color:#f44336; }</style>
  <style id="current-color-scheme-53562" type="text/css">.ColorScheme-Text { color:#dfdfdf; } .ColorScheme-Highlight { color:#4285f4; } .ColorScheme-NeutralText { color:#ff9800; } .ColorScheme-PositiveText { color:#4caf50; } .ColorScheme-NegativeText { color:#f44336; }</style>
  <style id="current-color-scheme-5" type="text/css">.ColorScheme-Text { color:#dfdfdf; } .ColorScheme-Highlight { color:#4285f4; } .ColorScheme-NeutralText { color:#ff9800; } .ColorScheme-PositiveText { color:#4caf50; } .ColorScheme-NegativeText { color:#f44336; }</style>
  <style id="current-color-scheme-53" type="text/css">.ColorScheme-Text { color:#dfdfdf; } .ColorScheme-Highlight { color:#4285f4; } .ColorScheme-NeutralText { color:#ff9800; } .ColorScheme-PositiveText { color:#4caf50; } .ColorScheme-NegativeText { color:#f44336; }</style>
  <style id="current-color-scheme-5356" type="text/css">.ColorScheme-Text { color:#dfdfdf; } .ColorScheme-Highlight { color:#4285f4; } .ColorScheme-NeutralText { color:#ff9800; } .ColorScheme-PositiveText { color:#4caf50; } .ColorScheme-NegativeText { color:#f44336; }</style>
  <style id="current-color-scheme-535" type="text/css">.ColorScheme-Text { color:#dfdfdf; } .ColorScheme-Highlight { color:#4285f4; } .ColorScheme-NeutralText { color:#ff9800; } .ColorScheme-PositiveText { color:#4caf50; } .ColorScheme-NegativeText { color:#f44336; }</style>
  <style id="current-color-scheme-5-2" type="text/css">.ColorScheme-Text { color:#dfdfdf; } .ColorScheme-Highlight { color:#4285f4; } .ColorScheme-NeutralText { color:#ff9800; } .ColorScheme-PositiveText { color:#4caf50; } .ColorScheme-NegativeText { color:#f44336; }</style>
  <style id="current-color-scheme-53-9" type="text/css">.ColorScheme-Text { color:#dfdfdf; } .ColorScheme-Highlight { color:#4285f4; } .ColorScheme-NeutralText { color:#ff9800; } .ColorScheme-PositiveText { color:#4caf50; } .ColorScheme-NegativeText { color:#f44336; }</style>
  <style id="current-color-scheme-535629" type="text/css">.ColorScheme-Text { color:#dfdfdf; } .ColorScheme-Highlight { color:#4285f4; } .ColorScheme-NeutralText { color:#ff9800; } .ColorScheme-PositiveText { color:#4caf50; } .ColorScheme-NegativeText { color:#f44336; }</style>
  <style id="current-color-scheme-535-1" type="text/css">.ColorScheme-Text { color:#dfdfdf; } .ColorScheme-Highlight { color:#4285f4; } .ColorScheme-NeutralText { color:#ff9800; } .ColorScheme-PositiveText { color:#4caf50; } .ColorScheme-NegativeText { color:#f44336; }</style>
  <style id="current-color-scheme-5-27" type="text/css">.ColorScheme-Text { color:#dfdfdf; } .ColorScheme-Highlight { color:#4285f4; } .ColorScheme-NeutralText { color:#ff9800; } .ColorScheme-PositiveText { color:#4caf50; } .ColorScheme-NegativeText { color:#f44336; }</style>
  <style id="current-color-scheme-53-0" type="text/css">.ColorScheme-Text { color:#dfdfdf; } .ColorScheme-Highlight { color:#4285f4; } .ColorScheme-NeutralText { color:#ff9800; } .ColorScheme-PositiveText { color:#4caf50; } .ColorScheme-NegativeText { color:#f44336; }</style>
 </defs>
 <path d="M 7.0488281,4 C 5.3592897,4 4,5.3592897 4,7.0488281 V 16.951172 C 4,18.64071 5.3592897,20 7.0488281,20 H 16.951172 C 18.64071,20 20,18.64071 20,16.951172 V 7.0488281 C 20,5.3592897 18.64071,4 16.951172,4 Z M 7,5 h 5 c 1.326082,0 2.597498,0.5203713 3.535156,1.4472656 C 16.472839,7.3741605 17,8.6325354 17,9.9433594 V 14.248047 L 15,13.660156 V 9.9121094 C 14.999463,8.1913037 13.522071,7.054648 12.126953,7 11.763932,6.9857815 9.2272322,6.9434728 9.0058594,9.6894531 8.9997594,9.7730211 9,9.8581294 9,9.9433594 v 1.0683596 l -2,-0.72461 z m 0,6.724609 2,0.722657 v 1.685546 C 9,16.30364 10.84338,17 12,17 c 1.382878,0 2.372679,-0.541991 2.951172,-1.945312 l 1.93164,0.669921 c -0.383468,1.101254 -1.301647,2.034309 -2.318359,2.63086 C 13.785212,18.812684 12.897286,19 12,19 10.876483,19 9.3326088,18.643083 8.1855469,17.3125 7.419992,16.424523 7.000158,15.29682 7,14.132812 Z" style="fill:currentColor" class="ColorScheme-Text"/>
</svg>
